; generated by Slic3r 1.2.9 on 2016-09-05 at 22:17:36

; external perimeters extrusion width = 0.40mm
; perimeters extrusion width = 0.48mm
; infill extrusion width = 0.48mm
; solid infill extrusion width = 0.48mm
; top infill extrusion width = 0.48mm

M107
M104 S205 ; set temperature
G28 ; home all axes
G1 Z5 F5000 ; lift nozzle

M109 S205 ; wait for temperature to be reached
G21 ; set units to millimeters
G90 ; use absolute coordinates
M82 ; use absolute distances for extrusion
G92 E0
G1 Z0.400 F7800.000
G1 E-2.00000 F2400.00000
G92 E0
G1 X51.708 Y-10.532 F7800.000
G1 E2.00000 F2400.00000
G1 X57.774 Y19.247 E5.60934 F1800.000
G1 X58.240 Y22.260 E5.97139
G1 X58.307 Y22.931 E6.05147
G1 X58.443 Y25.639 E6.37349
G1 X58.444 Y26.305 E6.45264
G1 X58.314 Y28.952 E6.76734
G1 X58.249 Y29.608 E6.84559
G1 X57.860 Y32.229 E7.16028
G1 X57.732 Y32.875 E7.23854
G1 X57.088 Y35.445 E7.55322
G1 X56.897 Y36.076 E7.63148
G1 X56.004 Y38.570 E7.94617
G1 X55.752 Y39.179 E8.02441
G1 X54.619 Y41.574 E8.33911
G1 X54.309 Y42.155 E8.41736
G1 X53.037 Y44.277 E8.71106
G1 X52.580 Y44.976 E8.81028
G1 X51.002 Y47.104 E9.12496
G1 X50.584 Y47.614 E9.20322
G1 X48.804 Y49.577 E9.51791
G1 X48.339 Y50.043 E9.59616
G1 X46.375 Y51.822 E9.91084
G1 X45.866 Y52.240 E9.98910
G1 X43.738 Y53.819 E10.30379
G1 X43.190 Y54.185 E10.38204
G1 X40.917 Y55.547 E10.69673
G1 X40.336 Y55.857 E10.77498
G1 X37.941 Y56.990 E11.08967
G1 X37.332 Y57.242 E11.16792
G1 X34.837 Y58.135 E11.48260
G1 X34.207 Y58.326 E11.56086
G1 X31.637 Y58.970 E11.87555
G1 X30.990 Y59.099 E11.95380
G1 X28.033 Y59.529 E12.30871
G1 X11.080 Y61.165 E14.33151
G1 X-10.649 Y61.188 E16.91221
G1 X-11.355 Y61.154 E16.99611
G1 X-28.379 Y59.493 E19.02758
G1 X-28.837 Y59.432 E19.08246
G1 X-31.784 Y58.938 E19.43736
G1 X-32.509 Y58.775 E19.52562
G1 X-35.384 Y57.958 E19.88052
G1 X-36.086 Y57.716 E19.96877
G1 X-38.853 Y56.587 E20.32367
G1 X-39.524 Y56.268 E20.41192
G1 X-42.149 Y54.840 E20.76682
G1 X-42.781 Y54.449 E20.85508
G1 X-45.232 Y52.740 E21.20999
G1 X-45.817 Y52.282 E21.29823
G1 X-48.064 Y50.312 E21.65314
G1 X-48.595 Y49.792 E21.74139
G1 X-50.611 Y47.586 E22.09629
G1 X-51.081 Y47.010 E22.18454
G1 X-52.840 Y44.595 E22.53945
G1 X-53.244 Y43.971 E22.62770
G1 X-54.726 Y41.376 E22.98260
G1 X-55.058 Y40.711 E23.07085
G1 X-56.244 Y37.968 E23.42576
G1 X-56.501 Y37.271 E23.51401
G1 X-57.376 Y34.414 E23.86891
G1 X-57.554 Y33.692 E23.95716
G1 X-58.072 Y30.952 E24.28840
G1 X-58.206 Y30.019 E24.40029
G1 X-58.433 Y27.040 E24.75520
G1 X-58.448 Y26.297 E24.84344
G1 X-58.344 Y23.310 E25.19835
G1 X-58.277 Y22.570 E25.28660
G1 X-57.779 Y19.247 E25.68563
G1 X-46.829 Y-34.483 E32.19808
G1 X-46.272 Y-36.726 E32.47255
G1 X-46.109 Y-37.277 E32.54080
G1 X-45.362 Y-39.464 E32.81526
G1 X-45.153 Y-39.999 E32.88351
G1 X-44.221 Y-42.114 E33.15797
G1 X-43.967 Y-42.629 E33.22622
G1 X-42.858 Y-44.657 E33.50068
G1 X-42.561 Y-45.149 E33.56893
G1 X-41.283 Y-47.074 E33.84339
G1 X-40.945 Y-47.538 E33.91164
G1 X-39.506 Y-49.347 E34.18610
G1 X-39.130 Y-49.781 E34.25435
G1 X-37.542 Y-51.460 E34.52881
G1 X-37.129 Y-51.861 E34.59706
G1 X-35.404 Y-53.398 E34.87152
G1 X-34.959 Y-53.761 E34.93977
G1 X-33.108 Y-55.145 E35.21423
G1 X-32.634 Y-55.469 E35.28248
G1 X-30.671 Y-56.690 E35.55695
G1 X-30.034 Y-57.042 E35.64347
G1 X-28.112 Y-58.021 E35.89964
G1 X-27.589 Y-58.260 E35.96789
G1 X-25.447 Y-59.128 E36.24235
G1 X-24.906 Y-59.321 E36.31060
G1 X-22.698 Y-60.003 E36.58506
G1 X-22.142 Y-60.149 E36.65331
G1 X-20.034 Y-60.607 E36.90947
G1 X-19.318 Y-60.738 E36.99601
G1 X-17.026 Y-61.034 E37.27048
G1 X-16.453 Y-61.083 E37.33872
G1 X-14.144 Y-61.182 E37.61318
G1 X14.139 Y-61.182 E40.97220
G1 X16.447 Y-61.083 E41.24666 F1800.000
G1 X17.020 Y-61.034 E41.31491
G1 X19.159 Y-60.758 E41.57108
G1 X19.878 Y-60.640 E41.65761
G1 X22.136 Y-60.149 E41.93207
G1 X22.692 Y-60.003 E42.00032
G1 X24.900 Y-59.321 E42.27478
G1 X25.441 Y-59.128 E42.34303
G1 X27.583 Y-58.260 E42.61749
G1 X28.106 Y-58.021 E42.68575
G1 X30.165 Y-56.973 E42.96020
G1 X30.666 Y-56.690 E43.02845
G1 X32.628 Y-55.469 E43.30291
G1 X33.102 Y-55.145 E43.37116
G1 X34.953 Y-53.761 E43.64563
G1 X35.398 Y-53.398 E43.71387
G1 X37.124 Y-51.860 E43.98835
G1 X37.536 Y-51.460 E44.05659
G1 X39.018 Y-49.893 E44.31275
G1 X39.500 Y-49.347 E44.39928
G1 X40.939 Y-47.538 E44.67374
G1 X41.277 Y-47.074 E44.74199
G1 X42.555 Y-45.148 E45.01647
G1 X42.852 Y-44.657 E45.08470
G1 X43.962 Y-42.629 E45.35916
G1 X44.216 Y-42.114 E45.42742
G1 X45.147 Y-39.999 E45.70188
G1 X45.356 Y-39.464 E45.77013
G1 X46.104 Y-37.277 E46.04459
G1 X46.266 Y-36.726 E46.11282
G1 X46.887 Y-34.203 E46.42142
G1 X51.696 Y-10.591 E49.28329
G1 E47.28329 F2400.00000
G92 E0
G1 X-11.786 Y-34.302 F7800.000
G1 E2.00000 F2400.00000
G1 X-11.743 Y29.063 E9.52562 F1800.000
G1 X-11.807 Y29.722 E9.60428
G1 X-12.014 Y30.405 E9.68895
G1 X-12.222 Y30.838 E9.74605
G1 X-12.605 Y31.410 E9.82783
G1 X-13.108 Y31.913 E9.91232
G1 X-13.496 Y32.198 E9.96942
G1 X-14.069 Y32.503 E10.04650
G1 X-14.521 Y32.661 E10.10342
G1 X-15.196 Y32.794 E10.18509
G1 X-24.793 Y32.804 E11.32493
G1 X-25.498 Y32.765 E11.40881
G1 X-26.244 Y32.640 E11.49860
G1 X-26.971 Y32.434 E11.58839
G1 X-27.671 Y32.148 E11.67818
G1 X-28.335 Y31.787 E11.76797
G1 X-28.955 Y31.354 E11.85776
G1 X-29.524 Y30.856 E11.94756
G1 X-30.034 Y30.298 E12.03735
G1 X-30.479 Y29.686 E12.12714
G1 X-30.854 Y29.030 E12.21693
G1 X-31.154 Y28.336 E12.30672
G1 X-31.375 Y27.613 E12.39651
G1 X-31.516 Y26.870 E12.48631
G1 X-31.573 Y26.116 E12.57610
G1 X-31.547 Y25.361 E12.66589
G1 X-31.444 Y24.663 E12.74966
G1 X-20.540 Y-28.875 E19.23865
G1 X-20.408 Y-29.404 E19.30342
G1 X-20.219 Y-29.958 E19.37285
G1 X-19.984 Y-30.493 E19.44228
G1 X-19.703 Y-31.005 E19.51171
G1 X-19.380 Y-31.492 E19.58114
G1 X-19.016 Y-31.950 E19.65057
G1 X-18.614 Y-32.375 E19.71999
G1 X-18.178 Y-32.764 E19.78942
G1 X-17.710 Y-33.114 E19.85885
G1 X-17.213 Y-33.422 E19.92828
G1 X-16.692 Y-33.688 E19.99771
G1 X-16.151 Y-33.907 E20.06714
G1 X-15.592 Y-34.080 E20.13656
G1 X-15.021 Y-34.204 E20.20599
G1 X-14.441 Y-34.279 E20.27542
G1 X-13.896 Y-34.302 E20.34019
G1 X-11.846 Y-34.302 E20.58362
G1 X-12.500 Y-33.588 F7800.000
G1 X-12.457 Y29.029 E28.02032 F1800.000
G1 X-12.511 Y29.583 E28.08644
G1 X-12.682 Y30.145 E28.15624
G1 X-12.844 Y30.483 E28.20075
G1 X-13.160 Y30.955 E28.26818
G1 X-13.575 Y31.370 E28.33786
G1 X-13.877 Y31.591 E28.38237
G1 X-14.357 Y31.847 E28.44693
G1 X-14.709 Y31.971 E28.49133
G1 X-15.266 Y32.080 E28.55869
G1 X-24.774 Y32.090 E29.68789
G1 X-25.419 Y32.054 E29.76468
G1 X-26.087 Y31.942 E29.84507
G1 X-26.738 Y31.757 E29.92546
G1 X-27.365 Y31.502 E30.00585
G1 X-27.959 Y31.178 E30.08624
G1 X-28.514 Y30.791 E30.16663
G1 X-29.023 Y30.345 E30.24702
G1 X-29.480 Y29.845 E30.32741
G1 X-29.878 Y29.298 E30.40780
G1 X-30.214 Y28.710 E30.48819
G1 X-30.483 Y28.089 E30.56858
G1 X-30.681 Y27.442 E30.64897
G1 X-30.807 Y26.777 E30.72936
G1 X-30.858 Y26.102 E30.80975
G1 X-30.834 Y25.425 E30.89014
G1 X-30.741 Y24.786 E30.96686
G1 X-19.843 Y-28.718 E37.45169
G1 X-19.723 Y-29.202 E37.51101
G1 X-19.554 Y-29.698 E37.57317
G1 X-19.342 Y-30.177 E37.63534
G1 X-19.091 Y-30.636 E37.69750
G1 X-18.802 Y-31.072 E37.75966
G1 X-18.476 Y-31.482 E37.82182
G1 X-18.116 Y-31.862 E37.88398
G1 X-17.726 Y-32.210 E37.94615
G1 X-17.306 Y-32.523 E38.00831
G1 X-16.862 Y-32.800 E38.07047
G1 X-16.396 Y-33.037 E38.13263
G1 X-15.911 Y-33.234 E38.19479
G1 X-15.410 Y-33.389 E38.25696
G1 X-14.899 Y-33.500 E38.31912
G1 X-14.380 Y-33.567 E38.38128
G1 X-13.881 Y-33.588 E38.44061
G1 X-12.560 Y-33.588 E38.59746
G1 X-13.214 Y-32.874 F7800.000
G1 X-13.171 Y28.994 E45.94523 F1800.000
G1 X-13.215 Y29.443 E45.99883
G1 X-13.349 Y29.886 E46.05374
G1 X-13.466 Y30.128 E46.08566
G1 X-13.714 Y30.499 E46.13874
G1 X-14.041 Y30.826 E46.19361
G1 X-14.258 Y30.985 E46.22553
G1 X-14.644 Y31.191 E46.27758
G1 X-14.898 Y31.280 E46.30946
G1 X-15.336 Y31.366 E46.36250
G1 X-24.754 Y31.376 E47.48107
G1 X-25.340 Y31.344 E47.55077
G1 X-25.930 Y31.245 E47.62176
G1 X-26.505 Y31.081 E47.69274
G1 X-27.058 Y30.855 E47.76373
G1 X-27.583 Y30.570 E47.83472
G1 X-28.073 Y30.228 E47.90571
G1 X-28.523 Y29.834 E47.97670
G1 X-28.926 Y29.393 E48.04769
G1 X-29.278 Y28.909 E48.11867
G1 X-29.574 Y28.390 E48.18966
G1 X-29.812 Y27.842 E48.26065
G1 X-29.987 Y27.270 E48.33164
G1 X-30.098 Y26.683 E48.40263
G1 X-30.143 Y26.087 E48.47361
G1 X-30.122 Y25.490 E48.54460
G1 X-30.037 Y24.909 E48.61427
G1 X-19.147 Y-28.560 E55.09494
G1 X-19.037 Y-29.000 E55.14881
G1 X-18.888 Y-29.438 E55.20371
G1 X-18.701 Y-29.861 E55.25861
G1 X-18.479 Y-30.266 E55.31350
G1 X-18.224 Y-30.651 E55.36840
G1 X-17.936 Y-31.013 E55.42329
G1 X-17.618 Y-31.349 E55.47819
G1 X-17.273 Y-31.656 E55.53308
G1 X-16.903 Y-31.933 E55.58798
G1 X-16.511 Y-32.177 E55.64288
G1 X-16.099 Y-32.387 E55.69777
G1 X-15.670 Y-32.561 E55.75267
G1 X-15.229 Y-32.697 E55.80756
G1 X-14.777 Y-32.795 E55.86246
G1 X-14.319 Y-32.855 E55.91736
G1 X-13.274 Y-32.874 E56.04148
G1 X-12.814 Y-32.877 F7800.000
G1 X-1.334 Y-4.767 F7800.000
G1 X-0.772 Y-4.999 E56.11364 F1800.000
G1 X-0.173 Y-5.117 E56.18614 F1800.000
G1 X0.425 Y-5.116 E56.25720
G1 X1.018 Y-4.998 E56.32898
G1 X1.577 Y-4.767 E56.40085
G1 X2.080 Y-4.430 E56.47273
G1 X2.508 Y-4.002 E56.54461
G1 X2.844 Y-3.499 E56.61648
G1 X3.076 Y-2.940 E56.68836
G1 X3.194 Y-2.347 E56.76023
G1 X3.194 Y-1.741 E56.83211
G1 X3.076 Y-1.148 E56.90398
G1 X2.844 Y-0.589 E56.97586
G1 X2.508 Y-0.086 E57.04773
G1 X2.080 Y0.342 E57.11961
G1 X1.577 Y0.679 E57.19148
G1 X1.018 Y0.910 E57.26336
G1 X0.424 Y1.028 E57.33524
G1 X-0.181 Y1.028 E57.40711
G1 X-0.775 Y0.910 E57.47899
G1 X-1.334 Y0.679 E57.55086
G1 X-1.837 Y0.342 E57.62274
G1 X-2.265 Y-0.086 E57.69461
G1 X-2.601 Y-0.589 E57.76649
G1 X-2.833 Y-1.148 E57.83836
G1 X-2.951 Y-1.741 E57.91024
G1 X-2.951 Y-2.347 E57.98212
G1 X-2.833 Y-2.940 E58.05399
G1 X-2.601 Y-3.499 E58.12587
G1 X-2.265 Y-4.002 E58.19774
G1 X-1.837 Y-4.430 E58.26962
G1 X-1.384 Y-4.733 E58.33437
G1 X-0.995 Y-4.134 F7800.000
G1 X-0.565 Y-4.312 E58.38971 F1800.000
G1 X-0.104 Y-4.402 E58.44546 F1800.000
G1 X0.354 Y-4.402 E58.49993
G1 X0.809 Y-4.312 E58.55504
G1 X1.239 Y-4.134 E58.61020
G1 X1.625 Y-3.876 E58.66537
G1 X1.953 Y-3.547 E58.72054
G1 X2.211 Y-3.161 E58.77571
G1 X2.389 Y-2.732 E58.83087
G1 X2.480 Y-2.276 E58.88604
G1 X2.480 Y-1.812 E58.94121
G1 X2.389 Y-1.356 E58.99638
G1 X2.211 Y-0.927 E59.05155
G1 X1.953 Y-0.541 E59.10672
G1 X1.625 Y-0.212 E59.16188
G1 X1.239 Y0.046 E59.21705
G1 X0.809 Y0.224 E59.27222
G1 X0.354 Y0.314 E59.32739
G1 X-0.111 Y0.314 E59.38255
G1 X-0.566 Y0.224 E59.43772
G1 X-0.995 Y0.046 E59.49289
G1 X-1.382 Y-0.212 E59.54806
G1 X-1.710 Y-0.541 E59.60323
G1 X-1.968 Y-0.927 E59.65839
G1 X-2.146 Y-1.356 E59.71356
G1 X-2.237 Y-1.812 E59.76873
G1 X-2.237 Y-2.276 E59.82390
G1 X-2.146 Y-2.732 E59.87907
G1 X-1.968 Y-3.161 E59.93423
G1 X-1.710 Y-3.547 E59.98940
G1 X-1.382 Y-3.876 E60.04457
G1 X-1.045 Y-4.100 E60.09261
G1 X-0.657 Y-3.501 F7800.000
G1 X-0.357 Y-3.625 E60.13114 F1800.000
G1 X-0.035 Y-3.688 E60.17014 F1800.000
G1 X0.284 Y-3.688 E60.20801
G1 X0.601 Y-3.625 E60.24645
G1 X0.900 Y-3.501 E60.28491
G1 X1.170 Y-3.321 E60.32337
G1 X1.399 Y-3.092 E60.36183
G1 X1.578 Y-2.823 E60.40029
G1 X1.702 Y-2.524 E60.43875
G1 X1.766 Y-2.206 E60.47721
G1 X1.766 Y-1.882 E60.51567
G1 X1.702 Y-1.564 E60.55413
G1 X1.578 Y-1.265 E60.59259
G1 X1.399 Y-0.996 E60.63105
G1 X1.170 Y-0.767 E60.66951
G1 X0.900 Y-0.587 E60.70797
G1 X0.601 Y-0.463 E60.74644
G1 X0.284 Y-0.400 E60.78490
G1 X-0.040 Y-0.400 E60.82336
G1 X-0.358 Y-0.463 E60.86182
G1 X-0.657 Y-0.587 E60.90028
G1 X-0.926 Y-0.767 E60.93874
G1 X-1.155 Y-0.996 E60.97720
G1 X-1.335 Y-1.265 E61.01566
G1 X-1.459 Y-1.564 E61.05412
G1 X-1.522 Y-1.882 E61.09258
G1 X-1.522 Y-2.206 E61.13104
G1 X-1.459 Y-2.524 E61.16950
G1 X-1.335 Y-2.823 E61.20796
G1 X-1.155 Y-3.092 E61.24642
G1 X-0.926 Y-3.321 E61.28488
G1 X-0.707 Y-3.468 E61.31622
G1 X-0.636 Y-3.825 F7800.000
G1 X11.792 Y-34.354 F7800.000
G1 X14.422 Y-34.281 E61.62866 F1800.000
G1 X15.015 Y-34.204 E61.69971
G1 X15.586 Y-34.080 E61.76914
G1 X16.145 Y-33.907 E61.83857
G1 X16.687 Y-33.688 E61.90799
G1 X17.208 Y-33.422 E61.97742
G1 X17.704 Y-33.114 E62.04685
G1 X18.172 Y-32.764 E62.11628
G1 X18.609 Y-32.375 E62.18571
G1 X19.010 Y-31.950 E62.25514
G1 X19.374 Y-31.492 E62.32457
G1 X19.697 Y-31.005 E62.39399
G1 X19.978 Y-30.493 E62.46342
G1 X20.214 Y-29.958 E62.53285
G1 X20.403 Y-29.404 E62.60228
G1 X20.534 Y-28.875 E62.66705
G1 X31.438 Y24.658 E69.15549
G1 X31.534 Y25.291 E69.23149
G1 X31.568 Y25.975 E69.31283
G1 X31.535 Y26.646 E69.39257
G1 X31.437 Y27.309 E69.47218
G1 X31.274 Y27.959 E69.55179
G1 X31.048 Y28.590 E69.63140
G1 X30.762 Y29.196 E69.71101
G1 X30.417 Y29.771 E69.79062
G1 X30.018 Y30.309 E69.87023
G1 X29.568 Y30.806 E69.94984
G1 X29.071 Y31.256 E70.02945
G1 X28.533 Y31.655 E70.10906
G1 X27.958 Y32.000 E70.18867
G1 X27.352 Y32.287 E70.26828
G1 X26.721 Y32.512 E70.34789
G1 X26.070 Y32.675 E70.42750
G1 X25.407 Y32.774 E70.50711
G1 X24.782 Y32.804 E70.58149
G1 X15.287 Y32.795 E71.70915
G1 X14.550 Y32.648 E71.79833
G1 X13.897 Y32.378 E71.88226
G1 X13.498 Y32.138 E71.93758
G1 X12.986 Y31.719 E72.01614
G1 X12.673 Y31.374 E72.07147
G1 X12.281 Y30.786 E72.15540
G1 X12.010 Y30.134 E72.23933
G1 X11.896 Y29.682 E72.29465
G1 X11.835 Y29.068 E72.36787
G1 X11.792 Y-34.294 E79.89312
G1 X12.507 Y-33.620 F7800.000
G1 X14.366 Y-33.568 E80.11402 F1800.000
G1 X14.893 Y-33.500 E80.17717
G1 X15.405 Y-33.389 E80.23933
G1 X15.905 Y-33.234 E80.30149
G1 X16.390 Y-33.037 E80.36366
G1 X16.856 Y-32.800 E80.42582
G1 X17.301 Y-32.523 E80.48798
G1 X17.720 Y-32.210 E80.55014
G1 X18.111 Y-31.862 E80.61230
G1 X18.470 Y-31.482 E80.67447
G1 X18.796 Y-31.072 E80.73663
G1 X19.086 Y-30.636 E80.79879
G1 X19.337 Y-30.177 E80.86095
G1 X19.548 Y-29.698 E80.92311
G1 X19.717 Y-29.202 E80.98528
G1 X19.838 Y-28.718 E81.04460
G1 X30.734 Y24.783 E87.52909
G1 X30.822 Y25.363 E87.59870
G1 X30.853 Y25.975 E87.67156
G1 X30.824 Y26.575 E87.74292
G1 X30.736 Y27.169 E87.81419
G1 X30.590 Y27.751 E87.88547
G1 X30.388 Y28.316 E87.95674
G1 X30.131 Y28.859 E88.02802
G1 X29.823 Y29.374 E88.09930
G1 X29.465 Y29.856 E88.17057
G1 X29.062 Y30.300 E88.24185
G1 X28.617 Y30.703 E88.31313
G1 X28.135 Y31.061 E88.38440
G1 X27.621 Y31.369 E88.45568
G1 X27.078 Y31.626 E88.52696
G1 X26.513 Y31.828 E88.59823
G1 X25.931 Y31.974 E88.66951
G1 X25.337 Y32.062 E88.74079
G1 X24.765 Y32.090 E88.80888
G1 X15.358 Y32.080 E89.92610
G1 X14.759 Y31.961 E89.99863
G1 X14.219 Y31.738 E90.06796
G1 X13.910 Y31.553 E90.11077
G1 X13.480 Y31.200 E90.17682
G1 X13.238 Y30.933 E90.21964
G1 X12.913 Y30.448 E90.28896
G1 X12.690 Y29.909 E90.35829
G1 X12.602 Y29.559 E90.40111
G1 X12.550 Y29.033 E90.46390
G1 X12.507 Y-33.560 E97.89772
G1 X13.221 Y-32.885 F7800.000
G1 X14.310 Y-32.855 E98.02707 F1800.000
G1 X14.771 Y-32.795 E98.08232
G1 X15.223 Y-32.697 E98.13722
G1 X15.665 Y-32.561 E98.19211
G1 X16.093 Y-32.387 E98.24701
G1 X16.505 Y-32.177 E98.30191
G1 X16.897 Y-31.933 E98.35680
G1 X17.268 Y-31.656 E98.41170
G1 X17.613 Y-31.349 E98.46659
G1 X17.930 Y-31.013 E98.52149
G1 X18.218 Y-30.651 E98.57639
G1 X18.474 Y-30.266 E98.63128
G1 X18.696 Y-29.861 E98.68618
G1 X18.882 Y-29.438 E98.74107
G1 X19.031 Y-29.000 E98.79597
G1 X19.141 Y-28.560 E98.84985
G1 X30.031 Y24.908 E105.33039
G1 X30.111 Y25.434 E105.39360
G1 X30.138 Y25.976 E105.45799
G1 X30.112 Y26.505 E105.52096
G1 X30.034 Y27.030 E105.58390
G1 X29.906 Y27.544 E105.64684
G1 X29.727 Y28.043 E105.70978
G1 X29.501 Y28.522 E105.77273
G1 X29.228 Y28.976 E105.83567
G1 X28.912 Y29.402 E105.89861
G1 X28.556 Y29.795 E105.96156
G1 X28.164 Y30.151 E106.02450
G1 X27.738 Y30.466 E106.08744
G1 X27.284 Y30.739 E106.15038
G1 X26.804 Y30.965 E106.21333
G1 X26.305 Y31.144 E106.27627
G1 X25.791 Y31.273 E106.33921
G1 X25.267 Y31.350 E106.40216
G1 X24.747 Y31.376 E106.46396
G1 X15.428 Y31.366 E107.57074
G1 X14.967 Y31.275 E107.62662
G1 X14.541 Y31.098 E107.68134
G1 X14.322 Y30.967 E107.71165
G1 X13.974 Y30.681 E107.76519
G1 X13.802 Y30.492 E107.79550
G1 X13.546 Y30.109 E107.85022
G1 X13.369 Y29.684 E107.90495
G1 X13.307 Y29.436 E107.93525
G1 X13.264 Y28.997 E107.98763
G1 X13.221 Y-32.825 E115.33001
G1 X13.229 Y-33.285 F7800.000
